svg/charges/farming/shepherds-crook.svg

<?xml version="1.0" encoding="UTF-8" standalone="no"?>
<svg
   xmlns:dc="http://purl.org/dc/elements/1.1/"
   xmlns:cc="http://creativecommons.org/ns#"
   xmlns:rdf="http://www.w3.org/1999/02/22-rdf-syntax-ns#"
   xmlns:svg="http://www.w3.org/2000/svg"
   xmlns="http://www.w3.org/2000/svg"
   version="1.1"
   width="79.82964"
   height="351"
   id="svg25">
  <defs
     id="defs5">
    <clipPath
       id="artboard_clip_path">
      <path
         d="M 73.17036 63 L 153 63 L 153 414 L 73.17036 414 Z"
         id="path2" />
    </clipPath>
  </defs>
  <metadata
     id="metadata7"> Produced by OmniGraffle 7.7.1 
    <dc:date>2018-03-13 06:46:41 +0000</dc:date>
<dc:title>Traceable heraldic art http://heraldicart.org/credits.html</dc:title>
<rdf:RDF>
  <cc:Work
     rdf:about="">
    <dc:format>image/svg+xml</dc:format>
    <dc:type
       rdf:resource="http://purl.org/dc/dcmitype/StillImage" />
    <dc:title></dc:title>
  </cc:Work>
</rdf:RDF>
</metadata>
  <g
     id="Crook,_Shepherd_s_(1)"
     fill-opacity="1"
     stroke-dasharray="none"
     stroke="none"
     stroke-opacity="1"
     fill="#ffff00"
     transform="translate(-73.170359,-63)">
    <title
       id="title9">Crook, Shepherd's (1)</title>
    <g
       id="Crook,_Shepherd_s_(1): Layer 2">
      <title
         id="title11">Layer 2</title>
      <g
         id="Group_3">
        <g
           id="Graphic_6">
          <path
             d="m 120.21902,64.39901 c 13.84426,4.347785 22.65425,12.24245 29.06151,25.85788 2.51714,5.37752 2.9748,7.89466 2.9748,17.16231 0,9.95414 -0.34325,11.55595 -3.66129,18.30646 -1.94507,4.11895 -5.83519,10.06855 -8.58116,13.3866 -2.74597,3.20364 -6.63609,8.00908 -8.69557,10.52622 l -3.77571,4.57662 0.11442,124.36953 c 0,68.30597 0.22883,124.71277 0.57208,125.17043 1.37298,2.1739 -1.94507,7.09374 -5.72077,8.58114 -4.91987,2.0595 -14.98842,2.28833 -16.24699,0.22885 -0.45766,-0.68649 -1.02974,-20.48035 -1.14415,-43.70668 -0.11442,-23.34074 -0.45766,-81.57817 -0.68649,-129.51822 -0.45767,-78.83221 -0.34325,-87.41336 1.37298,-89.81609 2.51714,-3.66129 5.83518,-7.66583 9.26765,-11.09829 4.80544,-4.91987 11.67037,-14.874 13.27218,-19.3362 3.20363,-9.03882 1.25857,-20.93802 -4.34778,-26.65879 -6.86493,-6.86492 -20.8236,-5.49194 -27.91736,2.74597 -5.9496,7.09375 -6.97934,11.55595 -4.4622,21.51009 2.17389,9.26765 1.83065,14.53076 -1.94506,22.42542 -2.63156,5.60636 -8.23791,9.03882 -12.47128,7.78024 -2.74597,-0.91532 -2.9748,-6.97933 -0.343245,-10.64062 2.059475,-2.9748 1.4874,-13.84427 -1.372985,-23.56958 -1.94506,-6.7505 -2.05948,-15.6749 -0.45766,-23.22632 1.02974,-4.23337 2.86038,-7.20817 8.35232,-13.272185 6.06402,-6.636095 8.23791,-8.237905 14.874,-10.640635 8.58116,-2.9748 14.98842,-3.31804 21.96776,-1.14415 z"
             fill="#cccccc"
             id="path13" />
        </g>
        <g
           id="Graphic_5">
          <path
             d="m 103.97203,66.34407 c -1.71623,0.80091 -4.80544,2.05948 -6.86492,2.86039 -1.94506,0.91532 -4.11895,1.60181 -4.69103,1.60181 -0.68649,0 -4.00454,3.31805 -7.55142,7.32259 -6.17843,6.97934 -6.40726,7.55141 -7.66583,16.59023 -1.02974,7.20817 -0.91532,10.64063 0.11442,14.75958 0.8009,2.9748 2.05947,9.26765 2.86038,13.95868 1.37299,7.89466 1.37299,8.9244 -0.68649,12.92894 -2.51714,5.03428 -2.74597,7.66583 -0.80091,7.66583 4.34779,-0.11442 6.86492,-1.83064 8.80999,-6.17842 3.43246,-7.43701 3.89012,-12.24246 1.94506,-18.99296 -1.02974,-3.43247 -1.83065,-7.78025 -1.83065,-9.83973 0,-8.35232 8.00908,-19.56503 15.90374,-22.19658 6.06402,-1.94506 16.47582,-1.02974 20.48036,1.83064 5.03427,3.6613 8.23791,11.32713 8.23791,19.45062 0,8.9244 -2.28831,15.21725 -8.23791,23.22632 -4.69103,6.17844 -6.17843,8.00909 -13.50102,15.90374 -1.83065,2.05948 -3.77571,5.03428 -4.11895,6.75051 -0.45766,1.60182 -0.45766,32.83722 -0.11442,69.45014 0.45766,36.61293 0.80091,92.1044 0.80091,123.56863 v 56.97887 l 3.08921,-0.91533 c 1.83065,-0.57207 5.9496,-1.02974 9.26765,-1.02974 4.34779,0 6.17843,-0.45766 6.52168,-1.83063 0.34324,-0.91534 0.34324,-33.4093 0,-72.0817 -0.45766,-60.29692 -0.80091,-170.59336 -0.68649,-174.48348 0.11441,-0.6865 1.25857,-2.51714 2.74597,-4.11896 7.89466,-8.58116 16.01815,-19.67945 18.76412,-25.62905 2.74597,-5.83518 3.20363,-8.12349 3.20363,-17.04789 -0.11442,-9.61089 -0.34325,-10.86946 -3.89012,-17.16231 -5.60636,-9.95414 -9.72531,-14.874 -15.67491,-18.30646 -9.72531,-5.72077 -19.90828,-7.66583 -26.42996,-5.03428 z"
             fill="#ff0000"
             id="path16" />
        </g>
        <g
           id="Graphic_4">
          <path
             d="m 110.3793,406.1578 c -5.26311,3.7757 -4.34779,5.60634 2.9748,5.60634 7.20816,0 12.01361,-1.83064 12.01361,-4.57661 0,-2.86039 -1.02974,-3.43247 -6.63609,-3.43247 -3.20363,0 -6.17843,0.80091 -8.35232,2.40274 z"
             fill="#ff0000"
             id="path19" />
        </g>
      </g>
    </g>
  </g>
  <circle
     style="fill:#3250b0;stroke-width:3;stroke-linecap:round;stroke-linejoin:round;stroke-miterlimit:3"
     id="hold-point"
     cx="42.929459"
     cy="169.51114"
     r="11.675583" />
</svg>

<?xml version="1.0" encoding="UTF-8" standalone="no"?>
<!DOCTYPE svg PUBLIC "-//W3C//DTD SVG 1.1//EN" "http://www.w3.org/Graphics/SVG/1.1/DTD/svg11.dtd">
<svg xmlns:dc="http://purl.org/dc/elements/1.1/" xmlns:xl="http://www.w3.org/1999/xlink" version="1.1" xmlns="http://www.w3.org/2000/svg" viewBox="73.17036 63 79.82964 351" width="79.82964" height="351">
  <defs>
    <clipPath id="artboard_clip_path">
      <path d="M 73.17036 63 L 153 63 L 153 414 L 73.17036 414 Z"/>
    </clipPath>
  </defs>
  <metadata> Produced by OmniGraffle 7.7.1 
    <dc:date>2018-03-13 06:46:41 +0000</dc:date><dc:title>Traceable heraldic art http://heraldicart.org/credits.html</dc:title>
  </metadata>
  <g id="Crook,_Shepherd_s_(1)" fill-opacity="1" stroke-dasharray="none" stroke="none" stroke-opacity="1" fill="#ffff00">
    <title>Crook, Shepherd&apos;s (1)</title>
    <g id="Crook,_Shepherd_s_(1): Layer 2" >
      <title>Layer 2</title>
      <g id="Group_3">
        <g id="Graphic_6">
          <path d="M 120.21902 64.39901 C 134.06328 68.746795 142.87327 76.64146 149.28053 90.25689 C 151.79767 95.63441 152.25533 98.15155 152.25533 107.4192 C 152.25533 117.37334 151.91208 118.97515 148.59404 125.72566 C 146.64897 129.84461 142.75885 135.79421 140.01288 139.11226 C 137.26691 142.3159 133.37679 147.12134 131.31731 149.63848 L 127.5416 154.2151 L 127.65602 278.58463 C 127.65602 346.8906 127.88485 403.2974 128.2281 403.75506 C 129.60108 405.92896 126.28303 410.8488 122.50733 412.3362 C 117.58746 414.3957 107.51891 414.62453 106.26034 412.56505 C 105.80268 411.87856 105.2306 392.0847 105.11619 368.85837 C 105.00177 345.51763 104.65853 287.2802 104.4297 239.34015 C 103.97203 160.50794 104.08645 151.92679 105.80268 149.52406 C 108.31982 145.86277 111.63786 141.85823 115.07033 138.42577 C 119.87577 133.5059 126.7407 123.55177 128.34251 119.08957 C 131.54614 110.05075 129.60108 98.15155 123.99473 92.43078 C 117.1298 85.56586 103.17113 86.93884 96.07737 95.17675 C 90.12777 102.2705 89.09803 106.7327 91.61517 116.68684 C 93.78906 125.95449 93.44582 131.2176 89.67011 139.11226 C 87.03855 144.71862 81.4322 148.15108 77.19883 146.8925 C 74.45286 145.97718 74.22403 139.91317 76.855585 136.25188 C 78.91506 133.27708 78.342985 122.40761 75.4826 112.6823 C 73.53754 105.9318 73.42312 97.0074 75.02494 89.45598 C 76.05468 85.22261 77.88532 82.24781 83.37726 76.183795 C 89.44128 69.5477 91.61517 67.94589 98.25126 65.54316 C 106.83242 62.56836 113.23968 62.22512 120.21902 64.39901 Z" fill="#cccccc"/>
        </g>
        <g id="Graphic_5">
          <path d="M 103.97203 66.34407 C 102.2558 67.14498 99.16659 68.40355 97.10711 69.20446 C 95.16205 70.11978 92.98816 70.80627 92.41608 70.80627 C 91.72959 70.80627 88.41154 74.12432 84.86466 78.12886 C 78.68623 85.1082 78.4574 85.68027 77.19883 94.71909 C 76.16909 101.92726 76.28351 105.35972 77.31325 109.47867 C 78.11415 112.45347 79.37272 118.74632 80.17363 123.43735 C 81.54662 131.33201 81.54662 132.36175 79.48714 136.36629 C 76.97 141.40057 76.74117 144.03212 78.68623 144.03212 C 83.03402 143.9177 85.55115 142.20148 87.49622 137.8537 C 90.92868 130.41669 91.38634 125.61124 89.44128 118.86074 C 88.41154 115.42827 87.61063 111.08049 87.61063 109.02101 C 87.61063 100.66869 95.61971 89.45598 103.51437 86.82443 C 109.57839 84.87937 119.99019 85.79469 123.99473 88.65507 C 129.029 92.31637 132.23264 99.9822 132.23264 108.10569 C 132.23264 117.03009 129.94433 123.32294 123.99473 131.33201 C 119.3037 137.51045 117.8163 139.3411 110.49371 147.23575 C 108.66306 149.29523 106.718 152.27003 106.37476 153.98626 C 105.9171 155.58808 105.9171 186.82348 106.26034 223.4364 C 106.718 260.04933 107.06125 315.5408 107.06125 347.00503 L 107.06125 403.9839 L 110.15046 403.06857 C 111.98111 402.4965 116.10006 402.03883 119.41811 402.03883 C 123.7659 402.03883 125.59654 401.58117 125.93979 400.2082 C 126.28303 399.29286 126.28303 366.7989 125.93979 328.1265 C 125.48213 267.82958 125.13888 157.53314 125.2533 153.64302 C 125.36771 152.95652 126.51187 151.12588 127.99927 149.52406 C 135.89393 140.9429 144.01742 129.84461 146.76339 123.89501 C 149.50936 118.05983 149.96702 115.77152 149.96702 106.84712 C 149.8526 97.23623 149.62377 95.97766 146.0769 89.68481 C 140.47054 79.73067 136.35159 74.81081 130.40199 71.37835 C 120.67668 65.65758 110.49371 63.71252 103.97203 66.34407 Z" fill="#ff0000"/>
        </g>
        <g id="Graphic_4">
          <path d="M 110.3793 406.1578 C 105.11619 409.9335 106.03151 411.76414 113.3541 411.76414 C 120.56226 411.76414 125.36771 409.9335 125.36771 407.18753 C 125.36771 404.32714 124.33797 403.75506 118.73162 403.75506 C 115.52799 403.75506 112.55319 404.55597 110.3793 406.1578 Z" fill="#ff0000"/>
        </g>
      </g>
    </g>
  </g>
</svg>
